X:43
%%etbk:tnset id:15,pos:1,rep:3x,ant:
%%etbk:wsite http://www.thesession.org/tunes/display/63
%%etbk:video src:ytube,cde:Ok4udRCsF_E,desc:
%%etbk:pldat 2016-04-12T15:52,2016-03-14T19:03,2016-01-16T16:18,2015-11-24T18:15,2015-09-09T17:04,2015-08-23T15:53,2015-08-13T18:49,2015-08-04T17:46,2015-07-19T15:11,2015-05-28T19:14,2015-05-27T18:47,2015-05-17T16:40,2015-04-23T18:08,2015-04-22T15:19,2015-04-21T17:16,2015-03-26T18:19,2015-03-06T17:18,2014-12-30T17:46,2014-12-16T16:19,2014-11-26T16:16,2014-05-19T18:15,2014-05-14T16:54,2014-05-11T12:20,2014-05-02T17:52,2014-04-12T15:26,2014-04-01T17:36,2014-03-14T18:15,2014-02-27T18:59,2014-02-25T19:31,2014-02-15T16:31,2014-02-10T18:22,2013-11-07T15:24,2013-10-24T18:09,2013-10-21T17:42,2013-09-12T18:15,2013-08-29T16:20,2013-08-26T18:01
T: Last Night's Fun
Z: Piano Box Version by Martin Fleischmann
H: Created 2013-02-19 /  Last Modified 2013-02-19
M: 4/4
L: 1/8
R: reel
K: Dmaj
|:!4!A!1!D!2!FD !4![A3D]!5!B | !4!ADF!1!D !1!EF!3!G!5!B | !4!ADFD !4!A!1!A !2!B!3!d |1 !4!e2!5!fe !3!d!2!BB!1!A:|2 !4!e2!5!fe !3!d!2!B!1!A!2!B||
| !1!d!3!f!2!f!3!f !5!a!3!f!2!f!3!f | !1!defd !2!edfe| !1!d!3!fff !5!afdf | !2!egfe !1!d!2!B!1!A!2!B|
!1!d!3!fff !5!a!3!fff | !1!defd !2!e2!3!f!4!g | !5!a2!5!b!3!f !5!af!2!e!4!g | !3!f!1!d!2!e!1!d !2!B!4!dd!1!A |


